X: 305799
M: 2/4
L: 1/16
K: C
c2c2 cdec | d2d2 fedc | B2B2 BGAB | cdec GGAB |\
c2c2 cdec | d2d2 fedc | B2B2 BGAB | c2e2c2 H|]
ef |\
geag fedc | a2a2 abc'a | geag fedc | dcBA GFED |\
f4 e2d2 | dcBc A2E2 | ABcd efed | c2aa aCB,A, |\
f4 e2d2 | dcBc A2a2 | c'3a b3^g | a2a2"^D.C."a2 |]


